X:1
T:The Eastern Gate
T:The Eastern Gate
T:Isaiah Guyman Martin
T:Isaiah Guyman Martin, 1905
T:Public Domain Courtesy of the Cyber Hymnal™
T:Public Domain Courtesy of the Cyber Hymnal™
C:Isaiah Guyman Martin
Z:Public Domain
Z:Courtesy of the Cyber Hymnal™
%%score ( 1 2 ) ( 3 4 )
L:1/8
Q:1/4=105
M:4/4
K:G
V:1 treble 
V:2 treble 
V:3 bass 
V:4 bass 
V:1
 [B,D]3 [B,D] [CE][B,D][DG][DA] | [DB]4 [DG]4 | [CE]3 [DF] [EG][EA] [EG]>[CE] | [B,D]8 | %4
w: 1.~I will meet you in the|morn- ing,|Just in- side the East- ern|Gate.|
w: 2.~If you hast- en off to|glo- ry,|Lin- ger near the East- ern|Gate,|
w: 3.~Keep your lamps all trimmed and|burn- ing;|For the Bride- groom watch and|wait.|
w: 4.~O the joys of that glad|meet- ing|With the saints who for us|wait!|
 [DB]3 [DA] [DG][DF][DG][DB] | [EA]4 [CE]4 | [CF]3 [B,G] [CA][Ec] [DB]>[CA] | [B,G]6 || %8
w: Then be rea- dy, faith- ful|pil- grim,|Lest with you it be too|late.|
w: For I’m com- ing in the|morn- ing;|So you’ll not have long to|wait.|
w: He’ll be with us at the|meet- ing|Just in- side the East- ern|Gate.|
w: What a bless- èd, hap- py|meet- ing|Just in- side the East- ern|Gate!|
"^Refrain" [G,B,][B,D] | [B,G]([B,G-] G4) [B,D][B,G] | [DB]([DB-] B4) [B,G][DB] | %11
w: |||
w: |||
w: I will|meet you, * I will|meet you * Just in-|
w: |||
 [Gd][Gd][Gd][Gd] [Gd]2 [Dc]>[DB] | A6 B,[B,D] | [B,G]([B,G-] G4) [B,D][B,G] | %14
w: |||
w: |||
w: side the East- ern Gate o- ver|there. I will|meet you, * I will|
w: |||
 [DB][DB-] B4 [B,G][DB] | [Gd][Gd] [Gd]>[Gd] [Gd][GB][FA][FB] | [DG]8 |] %17
w: |||
w: |||
w: meet you, * I will|meet you in the morn- ing o- ver|there.|
w: |||
V:2
 x8 | x8 | x8 | x8 | x8 | x8 | x8 | x6 || x2 | x2 (C>CB,B,) x2 | x2 (D>DDD) x2 | x8 | %12
 (D2 ^C>C =C2) B, x | x2 (C>CB,B,) x2 | x2 (D>DDD) x2 | x8 | x8 |] %17
V:3
 [G,,G,]3 [G,,G,] [G,,G,][G,,G,][B,,G,][D,F,] | G,4 [B,,G,]4 | %2
w: ~ ~ ~ ~ ~ ~|~ ~|
 [C,G,]3 [C,G,] [C,C][C,C] [C,C]>[C,G,] | [G,,G,]8 | [G,,G,]3 [G,,C] [G,,B,][C,A,][B,,G,][G,,G,] | %5
w: ~ ~ ~ ~ ~ ~|~|~ ~ ~ ~ ~ ~|
 [C,G,]4 [C,A,]4 | [D,A,]3 [D,G,] [D,F,][D,F,] [D,F,]>[D,F,] | [G,,D,]6 || [G,,D,][G,,G,] | %9
w: ~ ~|~ ~ ~ ~ ~ ~|~|I will|
 [G,,D,][G,,D,] [G,,E,]>[G,,E,] [G,,D,][G,,D,][G,,G,][G,,D,] | %10
w: meet you in the morn- ing, I will|
 [G,,G,][G,,G,] [G,,G,]>[G,,G,] [G,,G,][G,,G,][G,,D,][G,,G,] | %11
w: meet you in the morn- ing, Just in-|
 [G,B,][G,B,][G,B,][G,B,] [G,B,]2 [F,A,]>G, | [D,F,]2 [E,G,]>[E,G,] [D,F,]2 [G,,D,][G,,G,] | %13
w: side the East- ern Gate o- ver|there, o- ver there. I will|
 [G,,D,][G,,D,] [G,,E,]>[G,,E,] [G,,D,][G,,D,][G,,G,][G,,D,] | %14
w: meet you in the morn- ing, I will|
 [G,,G,][G,,G,] [G,,G,]>[G,,G,] [G,,G,][G,,G,][G,,D,][G,,G,] | %15
w: meet you in the morn- ing, * *|
 [G,B,][G,B,] [G,B,]>[G,B,] [D,B,][D,D][D,C][D,D] | [G,,B,]8 |] %17
w: ||
V:4
 x8 | G,4 x4 | x8 | x8 | x8 | x8 | x8 | x6 || x2 | x8 | x8 | x15/2 G,/ | x8 | x8 | x8 | x8 | x8 |] %17

